Map-navigation-icons/i-tractor-full.svg

<?xml version="1.0" encoding="UTF-8"?>
<svg width="24px" height="24px" viewBox="0 0 24 24" version="1.1" xmlns="http://www.w3.org/2000/svg" xmlns:xlink="http://www.w3.org/1999/xlink">
    <title>i-tractor-full</title>
    <g id="Fleet-View-V_2" stroke="none" stroke-width="1" fill="none" fill-rule="evenodd">
        <g id="Icons-list" transform="translate(-88.000000, -539.000000)">
            <g id="i-tractor-full" transform="translate(88.000000, 539.000000)">
                <rect id="ViewBox" x="0" y="0" width="24" height="24"></rect>
                <path d="M18.9595111,9.8125 L20.7563025,12 L16.6676853,12 L16.6676853,9.8125 M17.5,17.7548077 C16.7329378,17.7548077 16.1111111,17.1521141 16.1111111,16.4086538 C16.1111111,15.6651936 16.7329378,15.0625 17.5,15.0625 C18.2670622,15.0625 18.8888889,15.6651936 18.8888889,16.4086538 C18.8888889,17.1521141 18.2670622,17.7548077 17.5,17.7548077 M6.59744504,17.7548077 C5.83038289,17.7548077 5.20855615,17.1521141 5.20855615,16.4086538 C5.20855615,15.6651936 5.83038289,15.0625 6.59744504,15.0625 C7.36450719,15.0625 7.98633393,15.6651936 7.98633393,16.4086538 C7.98633393,17.1521141 7.36450719,17.7548077 6.59744504,17.7548077 M19.2727273,8.5 L16.5454545,8.5 L16.5454545,5 L3.81818182,5 C2.80909091,5 2,5.77875 2,6.75 L2,16.375 L3.81818182,16.375 C3.81818182,17.8247475 5.03922341,19 6.54545455,19 C8.05168568,19 9.27272727,17.8247475 9.27272727,16.375 L14.7272727,16.375 C14.7272727,17.8247475 15.9483143,19 17.4545455,19 C18.9607766,19 20.1818182,17.8247475 20.1818182,16.375 L22,16.375 L22,12 L19.2727273,8.5 Z" id="Truck-Shape" fill="#000000" fill-rule="nonzero"></path>
            </g>
        </g>
    </g>
</svg>

<svg width="24" height="24" xmlns="http://www.w3.org/2000/svg">
  <g fill="none" fill-rule="evenodd">
    <path d="M0 0h24v24H0z"/>
    <path d="M18.96 9.813 20.756 12h-4.088V9.812m.832 7.943c-.767 0-1.389-.603-1.389-1.346 0-.744.622-1.346 1.389-1.346s1.389.602 1.389 1.346c0 .743-.622 1.346-1.389 1.346m-10.903 0c-.767 0-1.388-.603-1.388-1.346 0-.744.621-1.346 1.388-1.346.768 0 1.39.602 1.39 1.346 0 .743-.622 1.346-1.39 1.346M19.273 8.5h-2.728V5H3.818C2.81 5 2 5.779 2 6.75v9.625h1.818C3.818 17.825 5.04 19 6.545 19c1.507 0 2.728-1.175 2.728-2.625h5.454c0 1.45 1.221 2.625 2.728 2.625 1.506 0 2.727-1.175 2.727-2.625H22V12l-2.727-3.5Z" fill="#000" fill-rule="nonzero"/>
  </g>
</svg>
